X:1
T:Bold Robin Hood and the Pedlar
M:3/2
L:1/4
K:C
 E3/2- D/2| C E G3 F| E D C3 G| A B c2 G2| B c d3 c| e d c2 G3/2 G/2|\
 A c
M:3/2
| E3 E E D| E2 c2(2A15.9999925000037/23.999988000006A15.9999925000037/23.999988000006G15.9999925000037/23.999988000006 E15.9999925000037/23.999988000006|\
 D3 z||
